!!!COM: Palestrina, Giovanni Perluigi da
!!!OPR: Missa In semidupl. maj. (I)
!!!OMD: Benedictus
!!!OTL: B.Hosanna
**kern	**kern	**kern	**kern	**kern
*Ibass	*Itenor	*Itenor	*Icalto	*Icant
!Bassus	!Tenor 2	!Tenor 1	!Altus	!Cantus
*clefF4	*clefGv2	*clefGv2	*clefG2	*clefG2
*k[b-]	*k[b-]	*k[b-]	*k[b-]	*k[b-]
*F:ion	*F:ion	*F:ion	*F:ion	*F:ion
*M3/2	*M3/2	*M3/2	*M3/2	*M3/2
=31	=31	=31	=31	=31
1r	1r	1r	2g	1r
.	.	.	2g	.
2r	2r	2r	2a	2r
=32	=32	=32	=32	=32
1r	2c	1r	2.g	1r
.	2c	.	.	.
.	.	.	4e	.
2r	2d	2r	2f	2r
=33	=33	=33	=33	=33
1r	2.c	1r	2.e	2cc
.	.	.	.	2cc
.	4A	.	4f	.
2r	2B-	2r	2d	2dd
=34	=34	=34	=34	=34
1r	2.A	1r	2e	2.cc
.	.	.	2f	.
.	4F	.	.	4a
2r	2G	2r	2d	2b-
=35	=35	=35	=35	=35
1r	2c	1r	2e	1g
.	4G	.	4d	.
.	4A	.	4c	.
2r	4B-	2r	4d	[2f
.	4c	.	4e	.
=36	=36	=36	=36	=36
2r	2d	1r	1f	2f]
1C	2.c	.	.	1g
.	.	2r	2e	.
.	4B-	.	.	.
=37	=37	=37	=37	=37
2.F	1A	2c	2f	1a
.	.	2c	2f	.
4E	.	.	.	.
2D	2r	2d	2f	2b-
=38	=38	=38	=38	=38
2E	1r	2.c	2g	2cc
2F	.	.	2f	2a
.	.	4A	.	.
2G	2r	2B-	2d	2g
=39	=39	=39	=39	=39
2E	1r	1G	1e	2g
2C	.	.	.	4cc
.	.	.	.	4b-
2D	2r	[2F	2f	4a
.	.	.	.	4g
=40	=40	=40	=40	=40
2.F	1r	2F]	1c	2a
.	.	1G	.	1g
8E	.	.	.	.
8D	.	.	.	.
2E	2r	.	2r	.
=41	=41	=41	=41	=41
1F	2c	2A	2F	1.f
.	2c	2F	2A	.
2r	2d	2D	2B-	.
=42	=42	=42	=42	=42
2FF	2.c	1F	2A	2cc
2FF	.	.	2F	2cc
.	4A	.	.	.
2BB-	2B-	2D	2f	2dd
=43	=43	=43	=43	=43
2C	2G	2E	2e	2.cc
2AA	2F	2F	2c	.
.	.	.	.	4a
2GG	2G	2E	2g	2b-
=44	=44	=44	=44	=44
1FF	[1.A	2.F	1c	1a
.	.	4E	.	.
2r	.	2D	2d	2f
=45	=45	=45	=45	=45
2AA	2A]	2A	2c#	2e
2BB-	2F	2D	2d	2d
2C	2E	2r	2g	2c
=46	=46	=46	=46	=46
2D	2D	2F	2f	2f
2E	2C	2c	2e	2g
2F	2F	2A	2c	2a
=47	=47	=47	=47	=47
2C	2G	2G	2e	2.cc
4FF	2A	2F	2f	.
4GG	.	.	.	4b-
4AA	[2c	2C	[2e	2a
4BB-	.	.	.	.
=48	=48	=48	=48	=48
2C	4c]	2E	4e]	2g
.	4B-	.	4d	.
2FF	2A	2F	4c	2f
.	.	.	4B-	.
2C	2G	2G	2c	2e
=49	=49	=49	=49	=49
2FF	2F	2A	2c	1f
1C	1G	2G	1c	.
.	.	2c	.	2e
=50	=50	=50	=50	=50
[1.FF	[1.F	[1.A	[1.c	[1.f
=51	=51	=51	=51	=51
2FF_	2F_	2A_	2c_	2f_
1FF_	1F_	1A_	1c_	1f_
=52	=52	=52	=52	=52
1FF]	1F]	1A]	1c]	1f]
==	==	==	==	==
*-	*-	*-	*-	*-
!!!CDT: 1525/^1526/-1594/2/2
!!!OCY: Italia
!!!AGN: Mass (Paraphrase)
!!!AST: renaissance, vocal
!!!ASW: Gregorian Mass
!!!PWK: Masses, Book Mantuan II
!!!RNB: Cadence finals: C
!!!YOR: Le Opere Complete, v. 19, p. 129
!!!YOO: Rome, Italy: Fratelli Scalera
!!!END: 1992//
!!!EED: John Miller
!!!YEC: Copyright 2000, John Miller
!!!YEN: United States of America
!!!YEM: Rights to all derivative electronic formats reserved.
!!!YEM: Refer to licensing agreement for further details.
!!!YEM: This file must be accompanied by the licensing agreement.
!!!YEM: A copy of the licensing agreement may be found at http://www.music-cog.ohio-state.edu/HumdrumDatabases/Palestrina/license.txt
!!!EMD: converted to Humdrum by Bret Aarden
